res/skins/LateNight/buttons/btn_beatgrid_buttons_toggle.svg

<?xml version="1.0" encoding="UTF-8" standalone="no"?>
<!-- Created with Inkscape (http://www.inkscape.org/) -->

<svg
   xmlns:dc="http://purl.org/dc/elements/1.1/"
   xmlns:cc="http://creativecommons.org/ns#"
   xmlns:rdf="http://www.w3.org/1999/02/22-rdf-syntax-ns#"
   xmlns:svg="http://www.w3.org/2000/svg"
   xmlns="http://www.w3.org/2000/svg"
   xmlns:sodipodi="http://sodipodi.sourceforge.net/DTD/sodipodi-0.dtd"
   xmlns:inkscape="http://www.inkscape.org/namespaces/inkscape"
   version="1.1"
   width="24"
   height="24"
   id="svg2"
   sodipodi:docname="btn_beatgrid_buttons_toggle.svg"
   inkscape:version="0.92.3 (2405546, 2018-03-11)">
  <sodipodi:namedview
     pagecolor="#ffffff"
     bordercolor="#666666"
     borderopacity="1"
     objecttolerance="10"
     gridtolerance="10"
     guidetolerance="10"
     inkscape:pageopacity="0"
     inkscape:pageshadow="2"
     inkscape:window-width="1366"
     inkscape:window-height="740"
     id="namedview20"
     showgrid="true"
     inkscape:snap-bbox="true"
     inkscape:snap-bbox-edge-midpoints="true"
     inkscape:bbox-paths="true"
     inkscape:snap-smooth-nodes="true"
     inkscape:snap-global="true"
     inkscape:zoom="11.313708"
     inkscape:cx="1.8359319"
     inkscape:cy="16.800055"
     inkscape:window-x="0"
     inkscape:window-y="0"
     inkscape:window-maximized="1"
     inkscape:current-layer="svg2">
    <inkscape:grid
       type="xygrid"
       id="grid891" />
  </sodipodi:namedview>
  <metadata
     id="metadata14">
    <rdf:RDF>
      <cc:Work
         rdf:about="">
        <dc:format>image/svg+xml</dc:format>
        <dc:type
           rdf:resource="http://purl.org/dc/dcmitype/StillImage" />
        <dc:title />
      </cc:Work>
    </rdf:RDF>
  </metadata>
  <defs
     id="defs12" />
  <g
     transform="matrix(-0.51119587,0.44559228,-0.505593,-0.58003036,28.908888,20.827665)"
     id="g4021-6-3"
     style="fill:#d2d2d2;fill-opacity:1;stroke-width:1.01081777"
     inkscape:transform-center-x="-4.9646495"
     inkscape:transform-center-y="6.0155621">
    <path
       style="color:#000000;display:inline;overflow:visible;visibility:visible;fill:#d2d2d2;fill-opacity:1;fill-rule:nonzero;stroke:none;stroke-width:1.57238352;marker:none;enable-background:accumulate"
       d="M 12,3 C 10.716299,3 9.6660156,4.0502839 9.6660156,5.3339844 V 17.130859 c -1.6125423,0.850104 -2.7304687,2.523923 -2.7304687,4.464844 0,1.942213 1.1182856,3.617407 2.7324219,4.466797 v -3.195611 c 0,-1.2837 1.0502842,-2.333984 2.3339842,-2.333984 1.283701,0 2.332031,1.050284 2.332031,2.333984 V 26.0625 c 1.614136,-0.84939 2.732422,-2.524584 2.732422,-4.466797 0,-1.942472 -1.118355,-3.617365 -2.732422,-4.466797 V 5.3339844 C 14.333984,4.0502839 13.283701,3 12,3 Z"
       transform="matrix(-1.4588405,0,0,1.2857142,27.506085,3.1428575)"
       id="rect3922-2-6"
       inkscape:connector-curvature="0"
       sodipodi:nodetypes="sscscssscscss" />
  </g>
  <path
     style="fill:#888888;fill-opacity:1;stroke-width:1"
     d="M 9,13.36254 V 21 h 2 v -5.34254 z"
     id="path4753-7-3"
     inkscape:connector-curvature="0"
     sodipodi:nodetypes="ccccc" />
  <path
     style="fill:#888888;fill-opacity:1;stroke-width:0.99999994"
     d="m 14,3 v 5.9863749 l 2,2.2949221 V 3 Z"
     id="path4753-7-3-6"
     inkscape:connector-curvature="0"
     sodipodi:nodetypes="ccccc" />
  <path
     style="fill:#888888;fill-opacity:1;stroke-width:0.99999994"
     d="m 19,3 v 11.724656 l 2,2.292969 V 3 Z"
     id="path4753-7-3-6-7"
     inkscape:connector-curvature="0"
     sodipodi:nodetypes="ccccc" />
  <g
     transform="matrix(0,0.88132606,-1,0,49,-4.8132606)"
     id="g4021-3"
     style="fill:#d2d2d2;fill-opacity:1" />
  <g
     transform="matrix(0.62319163,0.62319163,-0.70710678,0.70710678,39.839151,-9.3029841)"
     id="g4021-0"
     style="fill:#d2d2d2;fill-opacity:1" />
  <g
     transform="matrix(-0.62319163,0.62319163,-0.70710678,-0.70710678,52.302984,4.839151)"
     id="g4021-3-6"
     style="fill:#d2d2d2;fill-opacity:1" />
  <g
     transform="matrix(-0.88132606,0,0,-1,47.813261,14)"
     id="g4021-8"
     style="fill:#d2d2d2;fill-opacity:1" />
  <g
     transform="matrix(0,-0.88132606,1,0,29,12.813261)"
     id="g4021-3-9"
     style="fill:#d2d2d2;fill-opacity:1" />
  <g
     transform="matrix(-0.62319163,-0.62319163,0.70710678,-0.70710678,38.160849,17.302984)"
     id="g4021-0-0"
     style="fill:#d2d2d2;fill-opacity:1" />
  <g
     transform="matrix(0.62319163,-0.62319163,0.70710678,0.70710678,25.697016,3.160849)"
     id="g4021-3-6-3"
     style="fill:#d2d2d2;fill-opacity:1" />
  <path
     style="fill:#888888;fill-opacity:1;stroke-width:0.99999988"
     d="M 4,11.712633 V 21 H 6 V 13.015367 C 5.2617392,12.74628 4.5787832,12.317552 4,11.712633 Z"
     id="path4753-7-3-5"
     inkscape:connector-curvature="0"
     sodipodi:nodetypes="ccccc" />
  <g
     transform="matrix(-1.4882312,0,0,1.6886273,26.883288,4.7085349)"
     id="g4021-6-3-3"
     style="fill:#d2d2d2;fill-opacity:1;stroke-width:0.46059769" />
  <g
     transform="matrix(-0.68547588,0,0,0.77777784,18.855238,13.81768)"
     id="g4021-6-3-7"
     style="fill:#d2d2d2;fill-opacity:1" />
</svg>

<?xml version="1.0" encoding="UTF-8"?>
<!-- Created with Inkscape (http://www.inkscape.org/) -->
<svg id="svg2" width="24" height="24" version="1.1" xmlns="http://www.w3.org/2000/svg" xmlns:cc="http://creativecommons.org/ns#" xmlns:dc="http://purl.org/dc/elements/1.1/" xmlns:rdf="http://www.w3.org/1999/02/22-rdf-syntax-ns#">
 <metadata id="metadata14">
  <rdf:RDF>
   <cc:Work rdf:about="">
    <dc:format>image/svg+xml</dc:format>
    <dc:type rdf:resource="http://purl.org/dc/dcmitype/StillImage"/>
    <dc:title/>
   </cc:Work>
  </rdf:RDF>
 </metadata>
 <g id="g4021-6-3" transform="matrix(-.5112 .44559 -.50559 -.58003 28.909 20.828)" fill="#d2d2d2" stroke-width="1.0108">
  <path id="rect3922-2-6" transform="matrix(-1.4588 0 0 1.2857 27.506 3.1429)" d="m12 3c-1.2837 0-2.334 1.0503-2.334 2.334v11.797c-1.6125 0.8501-2.7305 2.5239-2.7305 4.4648 0 1.9422 1.1183 3.6174 2.7324 4.4668v-3.1956c0-1.2837 1.0503-2.334 2.334-2.334 1.2837 0 2.332 1.0503 2.332 2.334v3.1956c1.6141-0.84939 2.7324-2.5246 2.7324-4.4668 0-1.9425-1.1184-3.6174-2.7324-4.4668v-11.795c0-1.2837-1.0503-2.334-2.334-2.334z" color="#000000" fill="#d2d2d2"/>
 </g>
 <path id="path4753-7-3" d="m9 13.363v7.6375h2v-5.3425z" fill="#888"/>
 <path id="path4753-7-3-6" d="m14 3v5.9864l2 2.2949v-8.2813z" fill="#888"/>
 <path id="path4753-7-3-6-7" d="m19 3v11.725l2 2.293v-14.018z" fill="#888"/>
 <path id="path4753-7-3-5" d="m4 11.713v9.2874h2v-7.9846c-0.73826-0.26909-1.4212-0.69782-2-1.3027z" fill="#888"/>
</svg>
